X:1
T:Simple Gifts
C:Joseph Brackett, 1848 (Shaker dance song)
S:Public domain (US, pre-1929)
M:4/4
L:1/8
Q:1/4=110
K:F
H:Canonical concert-pitch melody. Pre-arrangement source.
H:AABA form. The melody most non-Shakers know via Aaron Copland's 1944 use of it in "Appalachian Spring."
A2 A B c2 c2 | A2 c2 d2 c2 | B2 A2 G2 G2 | F4 F2 z2 |
A2 A B c2 c2 | A2 c2 d2 c2 | B2 A2 G2 G2 | F4 F2 z2 |
c2 c2 d2 c2 | B2 A2 G2 G2 | F2 G2 A2 c2 | A4 G2 z2 |
A2 A B c2 c2 | A2 c2 d2 c2 | B2 A2 G2 G2 | F4 F2 z2 |
